X:1
T:Idbury Hill
L:1/8
M:4/4
N:Transposed from D Dorian for comparison
K:E Dorian
   B2Bc d2B2 | AGFE D2EF | G2B2 BAGF | E4  E4 :|
|| B2Bc d2B2 | edcB A2A2 | B2Bc d2A2 | e3d B4 |
   B2Bc d2B2 | AGFE D2EF | G2B2 BAGF | E4  E4 ||
